X:6
T:Oh Dear What Can The Matter Be?2voices. AJH.006
M:6/8
L:1/8
Q:3/8=100
S:A.J.Hughes MS
O:England
A:North Shropshire
Z:Neil Brookes 2006
V:1 clef=treble
V:2 clef=bass
%%staves {1 2}
K:G
[V:1] |: “_rest added”z|d3 d3 | dBg dBG | c3 c3 | cAB cBA |
[V:2] |: z|G,B,G, F,D,F, | G,3 G,2F, | E,G,C C,E,G, | D,3 D,3 |
%
[V:1] d3 d3 | dBg dBG | EGc BcA | G3 z2 😐
[V:2] G,B,G, F,D,F, | G,3 G,3 | C,3 D,3 | G,D,B,, G,,2 😐
%
[V:1] |: d | dBc dBc | dBg dBG | cAB cAB | cAB cBA |
[V:2] |: z | G,3 G,3 | G,3 G,3 | D,3 D,3 | D,3 D,3 |
%
[V:1] dBc dBc | dBg dBG | EGc BcA | G3″_dotted in MS” G2 😐
[V:2] G,3 G,3 | G,3 G,3 | B,,3 D,3 | G,D,B,, G,,2 😐

